X:1
T:Miss H. Hunter of Blackness
M:C|
L:1/8
R:Reel
S:Glen Collection, vol. 2 (1895)
Z:AK/Fiddler’s Companion
K:Eb
a|gafg e/e/e g2|c(ffe) dBBa|gafg e/e/e ge|cffd e2e:|
B|(G/F/E) BG AFcA|(G/F/E) BG FCDA|(G/F/E) BG AFcA|GEFD E2 EB|
(G/F/E) BG AFcA|(G/F/E) BG FCCA| GEBG ABcd|ecBG E2E||

